X: 28761
T: My Lagan Love
R: polka
M: 2/4
K: Cmajor
(3G/A/B/|c2 (GF/E/)|C2 (B,>C)|(E2 FE)|(C3 C)|(C4|C3)||
G|A2 (3_BAB|c2 (GF/E/)|C2 (B,>C)|(E2 FE)|(C3 C)|C3||
(C/C/)|(EF) (A>G)|(3GFE (FA/B/)|c2 (F (3A/G/A/ )|B2 c2|
_e (c2 B)|c2 (GF/E/)|C2 (B,z/C/)|(E2 FE)|(C3 C)|C3||

